svgs/light/file-music.svg

<svg xmlns="http://www.w3.org/2000/svg" viewBox="0 0 384 512"><!-- Font Awesome Pro 6.0.0-alpha2 by @fontawesome - https://fontawesome.com License - https://fontawesome.com/license (Commercial License) --><path d="M365.256 125.254L258.746 18.746C246.744 6.742 230.465 0 213.49 0H64C28.654 0 0 28.654 0 64V448C0 483.346 28.654 512 64 512H320C355.348 512 384 483.346 384 448V170.51C384 153.535 377.258 137.258 365.256 125.254ZM224 34.076C228.477 35.643 232.666 37.922 236.119 41.375L342.627 147.879C346.08 151.332 348.357 155.523 349.924 160H240C231.188 160 224 152.828 224 144V34.076ZM352 448C352 465.645 337.645 480 320 480H64C46.355 480 32 465.645 32 448V64C32 46.355 46.355 32 64 32H192V144C192 170.469 213.531 192 240 192H352V448ZM144 292.033V356.814C136.697 353.818 128.621 352 120 352C89.125 352 64 373.531 64 400S89.125 448 120 448S176 426.469 176 400V292.002L272 256.033V324.814C264.697 321.818 256.621 320 248 320C217.125 320 192 341.531 192 368S217.125 416 248 416S304 394.469 304 368V256.033C304 245.533 298.844 235.721 290.25 229.752C281.625 223.752 270.625 222.314 260.75 226.064L164.75 262.064C152.344 266.721 144 278.752 144 292.033ZM120 416C107.219 416 96 408.531 96 400S107.219 384 120 384S144 391.469 144 400S132.781 416 120 416ZM248 384C235.219 384 224 376.531 224 368S235.219 352 248 352S272 359.469 272 368S260.781 384 248 384Z"/></svg>

<svg xmlns="http://www.w3.org/2000/svg" viewBox="0 0 384 512"><!--! Font Awesome Pro 6.3.0 by @fontawesome - https://fontawesome.com License - https://fontawesome.com/license (Commercial License) Copyright 2023 Fonticons, Inc. --><path d="M365.3 125.3l-106.5-106.5C246.7 6.742 230.5 0 213.5 0H64C28.65 0 0 28.65 0 64l.0065 384c0 35.35 28.65 64 64 64H320c35.35 0 64-28.65 64-64V170.5C384 153.5 377.3 137.3 365.3 125.3zM224 34.08c4.477 1.566 8.666 3.846 12.12 7.299l106.5 106.5C346.1 151.3 348.4 155.5 349.9 160H240C231.2 160 224 152.8 224 144V34.08zM352 448c0 17.64-14.36 32-32 32H64c-17.64 0-32-14.36-32-32V64c0-17.64 14.36-32 32-32h128v112C192 170.5 213.5 192 240 192H352V448zM144 292v64.78C136.7 353.8 128.6 352 120 352C89.13 352 64 373.5 64 400S89.13 448 120 448s56-21.53 56-48V292l96-35.97v68.78C264.7 321.8 256.6 320 248 320C217.1 320 192 341.5 192 368s25.12 48 56 48s56-21.53 56-48V256c0-10.5-5.156-20.31-13.75-26.28c-8.625-6-19.62-7.438-29.5-3.688l-96 36C152.3 266.7 144 278.8 144 292zM120 416C107.2 416 96 408.5 96 400S107.2 384 120 384s24 7.469 24 16S132.8 416 120 416zM248 384C235.2 384 224 376.5 224 368s11.22-16 24-16s24 7.469 24 16S260.8 384 248 384z"/></svg>
